X:1
T:The Meeks Murder (3)
M:6/8
L:1/8
K:D
 A| F2 F F2 A| D2 D/2D/2 D2 A| B2 BB-c d| A3 z2 A| d2 d d2 B| A2 B F2 D|\
 A2 B F2 E| D3- D2||
